X: 2054
T: Asleep At The Wheel
R: reel
M: 4/4
K: Bminor
|:fBBA BBde|fBBA BAdf|e2 A/A/A AeAe|eAce AceA|
fBBA BBde|fBBA BAdf|eAce Acae|cA A/A/A B2 de:|
|:f2 fa BBde|fBBf afdf|e2 aA AeAe|eAce AceA|
f2 fa BBde|fBBf afdf|eAce Acae|cA A/A/A B2 de:|

